!!!SOCIAL_FUNCTION:	songs with the corn dance
!!!PDT:	1956
!!!OTL: No_3_Buffalo_Dance_Song_(c).krn
!!!LANG: Non-Tone
!!!LING_GROUP: Muskogean
!!!REG: Florida
**kern
*staff1
=1-
*clefF4
*k[b-e-a-]
*M3/4
8.B-\L
16F\Jk
12G\L
12F\
12F\J
8F\
8r
=2!|:
8.B-\L
16F\Jk
16G\LK
8.F\J
12F\L
12E-\
12E-\J
=3
*M2/4
12F\L
12E-\
12E-\J
8E-\
8r
=4
*M3/4
12E-\L
12F\
12E-\J
12C/L
12BB-/
12BB-/J
8BB-/
8r
=5
*M2/4
4F\
16F\LK
8.E-\J
=6
12F\L
12E-\
12E-\J
8E-\
8r
=7
*M3/4
12E-\L
12F\
12E-\J
12C/L
12BB-/
12BB-/J
4BB-/
=8:|!
*M2/4
2B-\
=9
8B-\L
8B-\J
8B-\L
8B-\J
=10
*M3/4
(4.B-\
8F\)
(8B-\L
8F\J)
*-
